X:12392
T:Fürenalp-Jodeli  Bb
T:Anni Wallimann  (23.8.1928-31.2.2014)
T:Dirigenten-Notiz, Edi Gasser
C:Unterwalden (CH)
M:3/4
R:Naturjodel
L:1/8
I:abc-charset utf-8
K:Bb
[P:A] B,>D FBD2 | Fd/B/ AFE2 | A,>G FAE2 | Fe/A/ BFD2 | 
B,>D FBD2 | Fd/B/ AFE2 | A,>G FAE2 | Fe/A/ B2z2 || 
M:2/4
L:1/8
[P:B]  FE/D/ CA | Fc E/F/f/d/ | BB/F/D2 | zF D/F/e/d/ | cc/F/E2 | 
zF E/F/f/d/ | BB/F/ Dd | B2z2  | FE/D/ CA | Fc E/F/f/d/ | 
BB/F/D2 | zF D/F/e/d/ | cc/F/E2 | zF E/F/f/d/ | (B4 | B2)z2 || 
M:3/4
L:1/8
[P:C] D2DCB,2 | F2FED2 | DF Bd Bd | f3dB2 | 
DF Bd Bd | f>d f>dc2 | EF Ac Ac | f>d f>dB2 | 
DD DCB,2 | F2FED2 | DF Bd Bd | f3dB2 | 
DF Bd Bd | f>d f>d c>F | EF df c/e/d/c/ | B4z2 |] 
W:
W: notiert Edi Gasser. Angaben: Anni Wallimann
W:
W:UJV-Naturjodelsammlung: Code-Nr: 06-06
W:http://www.naturjodler.ch/code 06.htm  (with AUDIO)
%May 1, 2018

